app/assets/images/remix_icon/user/ghost-2-line.svg

<svg viewBox="0 0 24 24" xmlns="http://www.w3.org/2000/svg"><path d="M12 2C15.5 2 18 5 19 8C22 9 23 11.73 23 14L20.2253 14.7928C19.796 14.9154 19.5 15.3078 19.5 15.7543V17.25C19.5 18.2165 18.7165 19 17.75 19H17.1536C16.4825 19 15.8562 19.3366 15.4858 19.8962C14.5576 21.2987 13.3957 22 12 22C10.6043 22 9.44238 21.2987 8.5142 19.8962C8.14383 19.3366 7.51746 19 6.84636 19H6.25C5.2835 19 4.5 18.2165 4.5 17.25V15.7543C4.5 15.3078 4.20402 14.9154 3.77472 14.7928L1 14C1 11.7337 2 9 5 8C6 5 8.5 2 12 2ZM12 4C9.8906 4 7.93534 5.78788 6.98864 8.37148L6.89737 8.63246L6.58114 9.58114L5.63246 9.89737C4.37721 10.3158 3.56485 11.238 3.20834 12.4564L3.185 12.543L4.32416 12.8697C5.55353 13.221 6.41845 14.3095 6.49454 15.5727L6.5 15.7543V17H6.84636C8.1096 17 9.29359 17.5963 10.0461 18.5996L10.182 18.7925C10.7584 19.6634 11.3162 20 12 20C12.6382 20 13.1667 19.7068 13.7029 18.9596L13.818 18.7925C14.5151 17.739 15.6658 17.0807 16.9178 17.0069L17.1536 17H17.5V15.7543C17.5 14.4757 18.309 13.3451 19.5027 12.9249L19.6758 12.8697L20.815 12.543L20.7918 12.4555C20.4554 11.3047 19.7124 10.4193 18.5728 9.97176L18.3675 9.89737L17.4189 9.58114L17.1026 8.63246C16.1948 5.90906 14.1797 4 12 4ZM12 12C12.8284 12 13.5 13.1193 13.5 14.5C13.5 15.8807 12.8284 17 12 17C11.1716 17 10.5 15.8807 10.5 14.5C10.5 13.1193 11.1716 12 12 12ZM9.5 8C10.3284 8 11 8.67157 11 9.5C11 10.3284 10.3284 11 9.5 11C8.67157 11 8 10.3284 8 9.5C8 8.67157 8.67157 8 9.5 8ZM14.5 8C15.3284 8 16 8.67157 16 9.5C16 10.3284 15.3284 11 14.5 11C13.6716 11 13 10.3284 13 9.5C13 8.67157 13.6716 8 14.5 8Z"/></svg>

<svg xmlns="http://www.w3.org/2000/svg" viewBox="0 0 24 24">
    <g>
        <path fill="none" d="M0 0h24v24H0z"/>
        <path fill-rule="nonzero" d="M12 2c3.5 0 6 3 7 6 3 1 4 3.73 4 6l-2.775.793a1 1 0 0 0-.725.961v1.496A1.75 1.75 0 0 1 17.75 19h-.596a2 2 0 0 0-1.668.896C14.558 21.3 13.396 22 12 22c-1.396 0-2.558-.701-3.486-2.104A2 2 0 0 0 6.846 19H6.25a1.75 1.75 0 0 1-1.75-1.75v-1.496a1 1 0 0 0-.725-.961L1 14c0-2.266 1-5 4-6 1-3 3.5-6 7-6zm0 2C9.89 4 7.935 5.788 6.989 8.371l-.092.261-.316.95-.949.315c-1.255.419-2.067 1.341-2.424 2.56l-.023.086 1.14.327a3 3 0 0 1 2.17 2.703l.005.181V17h.346a4 4 0 0 1 3.2 1.6l.136.192C10.758 19.663 11.316 20 12 20c.638 0 1.167-.293 1.703-1.04l.115-.168a4 4 0 0 1 3.1-1.785l.236-.007h.346v-1.246a3 3 0 0 1 2.003-2.83l.173-.054 1.139-.327-.023-.087c-.337-1.151-1.08-2.037-2.22-2.484l-.204-.075-.95-.316-.315-.949C16.195 5.91 14.18 4 12 4zm0 8c.828 0 1.5 1.12 1.5 2.5S12.828 17 12 17s-1.5-1.12-1.5-2.5.672-2.5 1.5-2.5zM9.5 8a1.5 1.5 0 1 1 0 3 1.5 1.5 0 0 1 0-3zm5 0a1.5 1.5 0 1 1 0 3 1.5 1.5 0 0 1 0-3z"/>
    </g>
</svg>
